images/ic-clar-goals.svg

<svg height="18" viewBox="0 0 18 18" width="18" xmlns="http://www.w3.org/2000/svg"><g fill="none" fill-rule="evenodd" transform="translate(-3 -3)"><path d="m0 0h24v24h-24z"/><path d="m7 3h2v2h-2zm0 16h2v2h-2zm-4-16h2v2h-2zm16 0h2v2h-2zm0 4h2v2h-2zm0 4h2v2h-2zm-16-4h2v2h-2zm0 12h2v2h-2zm16 0h2v2h-2zm0-4h2v2h-2zm-16 0h2v2h-2zm0-4h2v2h-2zm4 0h2v2h-2zm8 0h2v2h-2zm-4 8h2v2h-2zm4 0h2v2h-2zm0-16h2v2h-2zm-4 0h2v2h-2zm0 4h2v2h-2zm0 8h2v2h-2zm0-4h2v2h-2z" fill="#3e4241" fill-rule="nonzero"/></g></svg>

<?xml version="1.0" encoding="UTF-8"?>
<svg width="18px" height="18px" viewBox="0 0 18 18" version="1.1" xmlns="http://www.w3.org/2000/svg" xmlns:xlink="http://www.w3.org/1999/xlink">
    <!-- Generator: Sketch 54.1 (76490) - https://sketchapp.com -->
    <title>clar-goals</title>
    <desc>Created with Sketch.</desc>
    <g id="Page-1" stroke="none" stroke-width="1" fill="none" fill-rule="evenodd">
        <g id="clar-goals" transform="translate(-3.000000, -3.000000)">
            <polygon id="Path" points="0 0 24 0 24 24 0 24"></polygon>
            <path d="M7,3 L9,3 L9,5 L7,5 L7,3 Z M7,19 L9,19 L9,21 L7,21 L7,19 Z M3,3 L5,3 L5,5 L3,5 L3,3 Z M19,3 L21,3 L21,5 L19,5 L19,3 Z M19,7 L21,7 L21,9 L19,9 L19,7 Z M19,11 L21,11 L21,13 L19,13 L19,11 Z M3,7 L5,7 L5,9 L3,9 L3,7 Z M3,19 L5,19 L5,21 L3,21 L3,19 Z M19,19 L21,19 L21,21 L19,21 L19,19 Z M19,15 L21,15 L21,17 L19,17 L19,15 Z M3,15 L5,15 L5,17 L3,17 L3,15 Z M3,11 L5,11 L5,13 L3,13 L3,11 Z M7,11 L9,11 L9,13 L7,13 L7,11 Z M15,11 L17,11 L17,13 L15,13 L15,11 Z M11,19 L13,19 L13,21 L11,21 L11,19 Z M15,19 L17,19 L17,21 L15,21 L15,19 Z M15,3 L17,3 L17,5 L15,5 L15,3 Z M11,3 L13,3 L13,5 L11,5 L11,3 Z M11,7 L13,7 L13,9 L11,9 L11,7 Z M11,15 L13,15 L13,17 L11,17 L11,15 Z M11,11 L13,11 L13,13 L11,13 L11,11 Z" id="Shape" fill="#3E4241" fill-rule="nonzero"></path>
        </g>
    </g>
</svg>
